X: 4006
T: Blackwater Banks, The
R: reel
M: 4/4
K: Gmajor
GE|D/E/DB,D GBdB|eBdB ABGE|D/E/DB,D GBdB|cedB G2GE|
D/E/DB,D GBdB|eBdB ABGE|D/E/DB,D GBdB|cedB G2d/e/f||
gfga gdBd|egdg egdf|gfga gdBd|gdef g2d/e/f|
gfgd e/f/gdB|cABG AGEG|D/E/DB,D GBdB|cedB G4||

